!!! OTL: Literature150
!!! Chapter: 5
!!! Section: IV
!!! Page: 381
!!! Mode: 
!!! Encoder: DJB
**kern
*staff1
*I"Piano
=1-
*clefG2
*k[f#c#g#d#]
*E:
*M4/4
4r
4ff#\
4dd#\
4ccn\
=2
4a/
8a#/L
8b/J
4ccn\
4a#/
=3
4r
4a/
4f#/
4d#/
=4
4B#/
8c#/L
8dn/J
4d#/
4B#/
=5
4r
4ccn\
4a/
4f#/
=6
4d#/
8e/L
8e#/J
4f#/
4d#/
=7
4r
4dd#\
4ccn\
4a/
=8
!!linebreak:original
4f#/
8gn/L
8g#/J
4a/
4f#/
=9
4a/
8a#/L
8b/J
4cc#\
4an/
=10
4ccn\
8cc#\L
8ddn\J
4dd#\
4ccn\
=11
4dd#\
8ee\L
8ee#\J
4ff#\
4dd#\
=12
4f#/
8f##/L
8g#/J
4a/
[4a/
=13
4a/]
2a/
[4a/
=14
4a/]
4a#/
2b\
=15
!!linebreak:original
4r
4ee\
4b\
4f##/
=16
4g#/
8a/L
8a#/J
2b\
=17
1e
==
*-
